dist/images/ico/ico_date_arrow_prev.svg

<svg width="30" height="30" viewBox="0 0 30 30" fill="none" xmlns="http://www.w3.org/2000/svg">
<path d="M17.7335 11.5324L14.1982 15.0045L17.7335 18.4765C18.0888 18.8255 18.0888 19.3893 17.7335 19.7383C17.3781 20.0872 16.8041 20.0872 16.4487 19.7383L12.2665 15.6309C11.9112 15.2819 11.9112 14.7181 12.2665 14.3691L16.4487 10.2617C16.8041 9.91275 17.3781 9.91275 17.7335 10.2617C18.0797 10.6107 18.0888 11.1834 17.7335 11.5324Z" fill="#A4A4A4"/>
</svg>

<svg width="30" height="30" fill="none" xmlns="http://www.w3.org/2000/svg"><path d="M17.733 11.532l-3.535 3.473 3.535 3.472a.88.88 0 010 1.261.92.92 0 01-1.284 0l-4.183-4.107a.88.88 0 010-1.262l4.183-4.107a.92.92 0 011.284 0 .899.899 0 010 1.27z" fill="#A4A4A4"/></svg>
